src/components/Icon/assets/browser-ie.svg

<svg width="24" height="24" viewBox="0 0 24 24" fill="none" xmlns="http://www.w3.org/2000/svg">
<path fill-rule="evenodd" clip-rule="evenodd" d="M13.0475 7.71692C15.1335 7.71692 16.5325 9.19092 16.9515 11.1969H9.29449C9.67349 9.19092 10.9605 7.71692 13.0475 7.71692V7.71692ZM19.9265 4.17893C20.9415 5.23493 20.6725 7.12793 20.2145 8.01693C19.2495 6.47693 17.8025 5.27093 16.0845 4.60893C17.1665 4.09993 19.1305 3.35193 19.9265 4.17893V4.17893ZM4.4605 19.33C3.8545 18.513 4.5955 16.633 5.1435 15.494C5.7625 17.125 6.8705 18.515 8.2905 19.484C7.3145 19.766 5.1495 20.261 4.4605 19.33V19.33ZM17.0015 13.5299H21.4345C21.4765 13.1919 21.5005 12.8469 21.5005 12.4959C21.5005 11.0279 21.1245 9.64593 20.4645 8.44193C20.9495 7.44893 21.7355 5.39093 20.8295 3.88193C19.5935 1.82393 15.1225 2.93993 13.4555 4.05393C13.3195 4.04793 13.1845 4.04393 13.0475 4.04393C8.9975 4.04393 5.6145 6.89293 4.7895 10.6959C6.8705 7.69593 9.4955 7.01193 9.4955 7.01193C7.3915 7.88193 4.5995 12.6809 4.5995 12.6809C4.5995 12.6809 4.5785 12.7129 4.5435 12.7669C3.8615 13.8049 2.9915 15.5129 2.5625 17.9369C2.1905 20.0369 3.3445 22.8699 9.4505 20.1459C10.5415 20.6599 11.7605 20.9489 13.0475 20.9489C16.7555 20.9489 19.9035 18.5609 21.0425 15.2389H16.4275C15.7545 16.4699 14.5895 17.2759 13.0475 17.2759C10.8695 17.2759 9.5625 15.6729 9.2485 13.5299H12.5525H17.0015Z" fill="#65676A"/>
</svg>

<svg xmlns="http://www.w3.org/2000/svg" width="24" height="24" viewBox="0 0 24 24">
    <path fill="#65676A" fill-rule="evenodd" d="M13.047 7.717c2.086 0 3.485 1.474 3.904 3.48H9.294c.38-2.006 1.666-3.48 3.753-3.48zm6.88-3.538c1.015 1.056.745 2.949.288 3.838-.965-1.54-2.413-2.746-4.13-3.408 1.081-.51 3.046-1.257 3.841-.43zM4.46 19.329c-.607-.816.135-2.696.683-3.835.619 1.63 1.726 3.02 3.146 3.99-.975.282-3.14.777-3.83-.154zM17 13.53h4.433c.043-.337.066-.682.066-1.033 0-1.468-.375-2.85-1.035-4.054.485-.993 1.27-3.051.364-4.56-1.236-2.058-5.707-.942-7.373.172-.136-.006-.271-.01-.409-.01-4.05 0-7.433 2.849-8.258 6.652 2.082-3 4.707-3.684 4.707-3.684-2.105.87-4.897 5.669-4.897 5.669l-.056.086c-.682 1.038-1.552 2.746-1.98 5.17-.373 2.1.781 4.933 6.887 2.209 1.091.514 2.31.803 3.598.803 3.708 0 6.856-2.388 7.995-5.71h-4.616c-.672 1.23-1.838 2.037-3.38 2.037-2.178 0-3.485-1.603-3.799-3.746h7.753z"/>
</svg>
